X: 13580
T: Flying Pieman, The
R: jig
M: 6/8
K: Dmajor
A|def d2B|A2A F2E|D2A A2A|Acd e2A|
def d2B|A2A F2E|D2A A2A|ABc d2:|
e|f2a afd|c2b bag|f2a agf|gfg e3|
f2a afd|c2b bag|fgf edc|d3 d2:|

